X:3524
T:Cranking Out
T:120
M:4/4
L:1/8
C:Jerry Holland
S:James Kelly
R:Reel
D:The Ring Sessions
Z:Transcribed by Bill Reeder
K:Dmix
"D"D2 AD "G"BDAD|"D"(3FED AD "G"BcGE|
"D"(3FED AD "G"BDAB|1 "Am"ccAc "C"EcGE :|2 "C"ccGE "C"DEFg||
"D"fdAd "D"FADg|"D"fdAB "C"cGEg|"D"fdAd "D"FADc|"G"BGcG "C"EDEg|
"D"fdAd "D"FADg|"D"fdAB "C"cGEg|"D"fdAd "D"FADc|"G"BGcG "C"EDEg ||
Bill Reeder


